X:1
T:Title
%%score { 1 | ( 2 3 ) }
L:1/8
Q:1/4=100
M:4/4
K:C
V:1 treble nm="Grand Piano"
V:2 bass 
V:3 bass 
V:1
 [Ec]3 [Ec] [EG]3 [EG] | [FA][GB][Ac][Bd] [Ge]2 [Gc]2 | d3 c BAGF | [CE]2[K:bass] [F,B,D]2 [E,C]4 | %4
w: Frank~L.~Armstrong * * *||||
 [Ec]3 [Ec] [EG]3 [EG] | [FA][GB][Ac][Bd] [Ge]2 [Ge]2 | [Gd]3 [Gd] [Ge]3 [Ge] | %7
w: |||
 [^Fd]2 [DF]2 [DG]4 | [EG][EG][EG][EG] [EG]2 [EG]2 | [FA]4 [FA]2 z2 | %10
w: |||
 [^FA][FA][FA][FA] [Fd]2 [FA]2 | [GB]6 z2 | [Ec]2 [Fc]2 [Ec]3 [Ec] | [Bd][Ac][GB]A [CEG]2 [G,CE]2 | %14
w: ||||
 CDEF G2 [CGc]2 | [^Fd]2 [D=FB]2 [CEc]4 | cBAG FEDC | cBAG FEDC | [G,DG]2 [FB]2 [Gd]2 [GB]2 | %19
w: |||||
 [^FA]2 [Fd]2 G4 | [Ec]3 [Ec] [Gd]3 [Gd] | [EG]3 [EG] [Ge]2 [Ec]2 | [FA][Ac][GB]A G2 c2 | %23
w: ||||
 d2 B2 [Ec]4 |] %24
w: |
V:2
 [C,G,]3 [C,G,] [C,C]3 [C,C] | [F,C]2 [F,C]2 [C,C]2 [E,C]2 | z4 F2 .E2 | G,2 G,,2 C,4 | %4
 [C,G,]3 [C,G,] [C,C]3 [C,C] | [F,C]2 [F,C]2 [C,C]2 [^C,_B,]2 | [D,B,]3 [D,B,] [C,C]3 [C,C] | %7
 [D,C]2 [D,C]2 [G,B,]4 | [C,C][C,C][C,C][C,C] [C,C]2 [C,C]2 | [F,C]4 [D,D]2 z2 | %10
 [D,C][D,C][D,C][D,C] [D,C]2 [D,D]2 | [G,D]6 z2 | [C,C]2 [C,A,]2 [C,G,]3 [C,C] | z2 [F,C]2 z4 | %14
 C,D,E,F, G,2 E,2 | [D,C]2 G,2 C,4 | CB,A,G, F,E,D,C, | CB,A,G, F,E,D,C, | %18
 B,,2 [G,,G,]2 [D,B,]2 [D,D]2 | [D,C]2 [D,C]2 [G,B,]4 | [C,C]3 [C,C] [G,B,]3 [G,B,] | %21
 [C,C]3 [C,C] [C,C]2 [C,C]2 | [F,C]2 z[K:treble] F [G,CE]2 [G,CE]2 | %23
 [G,B,F]2 [G,DF]2[K:bass] [C,C]4 |] %24
V:3
 x8 | x8 | [F,A,F]3 [F,A,F] [G,D][G,C][G,B,]-[G,B,D] | x8 | x8 | x8 | x8 | x8 | x8 | x8 | x8 | x8 | %12
 x8 | [F,C]2 z F C,2 C,2 | x8 | x8 | x8 | x8 | x8 | x8 | x8 | x8 | z2 [F,C]2[K:treble] z4 | %23
 x4[K:bass] x4 |] %24

